img/home/icons/usp-3.svg

<svg height="78" viewBox="0 0 81 78" width="81" xmlns="http://www.w3.org/2000/svg" xmlns:xlink="http://www.w3.org/1999/xlink"><mask id="a" fill="#fff"><path d="m.23144211.867625h17.21813679v9.9953333h-17.21813679z" fill="#fff" fill-rule="evenodd"/></mask><mask id="b" fill="#fff"><path d="m0 78h80v-78h-80z" fill="#fff" fill-rule="evenodd"/></mask><g fill="#fff" fill-rule="evenodd"><path d="m72.1768582 67-2.8894258-4.3030026h-4.1814987c-.5834866 0-1.1268294-.2974939-1.4367775-.7896098l-7.224965-11.4261726-3.7007057-2.4207286-8.8241851 14.7681126-2.9193004-1.7173086 9.73069-16.287092c.237129-.3957317.6264313-.6793239 1.0792169-.7821956.4527857-.1010182.9279772-.0185355 1.3144787.2335465l5.4941102 3.5930953c.2035202.1316016.3743651.3076883.5041325.5115782l6.9206184 10.9488849h4.1525577c.5657486 0 1.0969549.280812 1.4115709.7497586l3.3926247 5.0527612z"/><path d="m50.1131006 78-14.9397278-23.4279592h-4.2118322c-.5552819 0-1.0746783-.2713222-1.396704-.7254299l-7.7295621-10.908105-1.714008.8625191-3.1787056 4.8095432c-.3191927.4817159-.8546431.7701743-1.4288122.7701743h-2.4213313l-8.0921952 14.6809118-3.0002222-1.6783897 8.5813721-15.5729431c.3021942-.5483565.8763633-.8901272 1.5005833-.8901272h2.5138783l2.9227849-4.4201721c.1662069-.2503781.3937969-.4522037.6610499-.5873888l3.4317934-1.7307501c.7573743-.3798511 1.6752893-.1485132 2.1635219.5426444l8.0685862 11.3869649h4.266605c.5826683 0 1.1275622.2979784 1.4429775.7939745l15.4468475 24.2219336z"/><path d="m53 29c-.9667125 0-1.7495186-.8042258-1.7495186-1.7996038 0-2.018488-2.3060522-3.6001981-5.2504814-3.6001981v-3.6001981c2.9261348 0 5.4295736 1.0647078 7 2.7741829 1.5704264-1.7094751 4.0738652-2.7741829 7-2.7741829v3.6001981c-2.9444292 0-5.2504814 1.5817101-5.2504814 3.6001981 0 .995378-.7818432 1.7996038-1.7495186 1.7996038"/><path d="m67.0004814 12c-.9676088 0-1.7493983-.8042258-1.7493983-1.7996038 0-2.01749755-2.3058936-3.60019811-5.2510831-3.60019811v-3.60019809c2.9268964 0 5.4292002 1.06569825 7.0004814 2.7741829 1.5703184-1.70848465 4.0726222-2.7741829 6.9995186-2.7741829v3.60019809c-2.9451895 0-5.2501203 1.58270056-5.2501203 3.60019811 0 .995378-.7827523 1.7996038-1.7493983 1.7996038"/><path d="m8.84112632 10.8629583c-.95210527 0-1.72136843-.7443333-1.72136843-1.6655833 0-2.849-2.96147368-4.99858333-6.88831578-4.99858333v-3.33116667c3.67768421 0 6.78978947 1.39516667 8.60968421 3.59975 1.81894738-2.20458333 4.93105258-3.59975 8.60873688-3.59975v3.33116667c-3.9268421 0-6.8873685 2.14958333-6.8873685 4.99858333 0 .92125-.77021049 1.6655833-1.72136838 1.6655833" mask="url(#a)" transform="translate(63 30)"/><path d="m17.5 11.4c-2.8118191 0-5.0998129 2.287868-5.0998129 5.1004677 0 2.8116643 2.2879938 5.0995323 5.0998129 5.0995323 2.8127545 0 5.0998129-2.287868 5.0998129-5.0995323 0-2.8125997-2.2870584-5.1004677-5.0998129-5.1004677m0 13.6c-4.6863651 0-8.5-3.813425-8.5-8.4995323 0-4.6870427 3.8136349-8.5004677 8.5-8.5004677 4.6873005 0 8.5 3.813425 8.5 8.5004677 0 4.6861073-3.8126995 8.4995323-8.5 8.4995323"/><path d="m15 5h3v-5h-3z" mask="url(#b)"/><path d="m7.60130719 10-3.60130719-3.6 2.39962652-2.4 3.60037348 3.6z" mask="url(#b)"/><path d="m0 18h5v-3h-5z" mask="url(#b)"/><path d="m6.39962652 30-2.39962652-2.3990661 3.60130719-3.6009339 2.39869281 2.4009339z" mask="url(#b)"/><path d="m15 34h3v-5h-3z" mask="url(#b)"/><path d="m27.5996264 30-3.5996264-3.5990661 2.4003736-2.4009339 3.5996264 3.6009339z" mask="url(#b)"/><path d="m29 18h5v-3h-5z" mask="url(#b)"/><path d="m26.4003736 10-2.4003736-2.4 3.5996264-3.6 2.4003736 2.4z" mask="url(#b)"/></g></svg>

<?xml version="1.0" encoding="UTF-8"?>
<svg width="81px" height="78px" viewBox="0 0 81 78" version="1.1" xmlns="http://www.w3.org/2000/svg" xmlns:xlink="http://www.w3.org/1999/xlink">
    <!-- Generator: Sketch 51.3 (57544) - http://www.bohemiancoding.com/sketch -->
    <title>usp-3</title>
    <desc>Created with Sketch.</desc>
    <defs>
        <polygon id="path-1" points="0.231442105 0.867625 17.4495789 0.867625 17.4495789 10.8629583 0.231442105 10.8629583"></polygon>
        <polygon id="path-3" points="0 78 80 78 80 0 0 0"></polygon>
    </defs>
    <g id="Home-&amp;-Quote" stroke="none" stroke-width="1" fill="none" fill-rule="evenodd">
        <g id="TT-Home-01" transform="translate(-826.000000, -643.000000)">
            <g id="usp-3" transform="translate(826.000000, 643.000000)">
                <path d="M72.1768582,67 L69.2874324,62.6969974 L65.1059337,62.6969974 C64.5224471,62.6969974 63.9791043,62.3995035 63.6691562,61.9073876 L56.4441912,50.481215 L52.7434855,48.0604864 L43.9193004,62.828599 L41,61.1112904 L50.73069,44.8241984 C50.967819,44.4284667 51.3571213,44.1448745 51.8099069,44.0420028 C52.2626926,43.9409846 52.7378841,44.0234673 53.1243856,44.2755493 L58.6184958,47.8686446 C58.822016,48.0002462 58.9928609,48.1763329 59.1226283,48.3802228 L66.0432467,59.3291077 L70.1958044,59.3291077 C70.761553,59.3291077 71.2927593,59.6099197 71.6073753,60.0788663 L75,65.1316275 L72.1768582,67 Z" id="Fill-1" fill="#FFFFFF"></path>
                <path d="M50.1131006,78 L35.1733728,54.5720408 L30.9615406,54.5720408 C30.4062587,54.5720408 29.8868623,54.3007186 29.5648366,53.8466109 L21.8352745,42.9385059 L20.1212665,43.801025 L16.9425609,48.6105682 C16.6233682,49.0922841 16.0879178,49.3807425 15.5137487,49.3807425 L13.0924174,49.3807425 L5.0002222,64.0616543 L2,62.3832646 L10.5813721,46.8103215 C10.8835663,46.261965 11.4577354,45.9201943 12.0819554,45.9201943 L14.5958337,45.9201943 L17.5186186,41.5000222 C17.6848255,41.2496441 17.9124155,41.0478185 18.1796685,40.9126334 L21.6114619,39.1818833 C22.3688362,38.8020322 23.2867512,39.0333701 23.7749838,39.7245277 L31.84357,51.1114926 L36.110175,51.1114926 C36.6928433,51.1114926 37.2377372,51.409471 37.5531525,51.9054671 L53,76.1274007 L50.1131006,78 Z" id="Fill-3" fill="#FFFFFF"></path>
                <path d="M53,29 C52.0332875,29 51.2504814,28.1957742 51.2504814,27.2003962 C51.2504814,25.1819082 48.9444292,23.6001981 46,23.6001981 L46,20 C48.9261348,20 51.4295736,21.0647078 53,22.7741829 C54.5704264,21.0647078 57.0738652,20 60,20 L60,23.6001981 C57.0555708,23.6001981 54.7495186,25.1819082 54.7495186,27.2003962 C54.7495186,28.1957742 53.9676754,29 53,29" id="Fill-5" fill="#FFFFFF"></path>
                <path d="M67.0004814,12 C66.0328726,12 65.2510831,11.1957742 65.2510831,10.2003962 C65.2510831,8.18289865 62.9451895,6.60019809 60,6.60019809 L60,3 C62.9268964,3 65.4292002,4.06569825 67.0004814,5.7741829 C68.5707998,4.06569825 71.0731036,3 74,3 L74,6.60019809 C71.0548105,6.60019809 68.7498797,8.18289865 68.7498797,10.2003962 C68.7498797,11.1957742 67.9671274,12 67.0004814,12" id="Fill-7" fill="#FFFFFF"></path>
                <g id="Group-11" transform="translate(63.000000, 30.000000)">
                    <mask id="mask-2" fill="white">
                        <use xlink:href="#path-1"></use>
                    </mask>
                    <g id="Clip-10"></g>
                    <path d="M8.84112632,10.8629583 C7.88902105,10.8629583 7.11975789,10.118625 7.11975789,9.197375 C7.11975789,6.348375 4.15828421,4.19879167 0.231442105,4.19879167 L0.231442105,0.867625 C3.90912632,0.867625 7.02123158,2.26279167 8.84112632,4.467375 C10.6600737,2.26279167 13.7721789,0.867625 17.4498632,0.867625 L17.4498632,4.19879167 C13.5230211,4.19879167 10.5624947,6.348375 10.5624947,9.197375 C10.5624947,10.118625 9.79228421,10.8629583 8.84112632,10.8629583" id="Fill-9" fill="#FFFFFF" mask="url(#mask-2)"></path>
                </g>
                <path d="M17.5,11.4 C14.6881809,11.4 12.4001871,13.687868 12.4001871,16.5004677 C12.4001871,19.312132 14.6881809,21.6 17.5,21.6 C20.3127545,21.6 22.5998129,19.312132 22.5998129,16.5004677 C22.5998129,13.687868 20.3127545,11.4 17.5,11.4 M17.5,25 C12.8136349,25 9,21.186575 9,16.5004677 C9,11.813425 12.8136349,8 17.5,8 C22.1873005,8 26,11.813425 26,16.5004677 C26,21.186575 22.1873005,25 17.5,25" id="Fill-12" fill="#FFFFFF"></path>
                <mask id="mask-4" fill="white">
                    <use xlink:href="#path-3"></use>
                </mask>
                <g id="Clip-15"></g>
                <polygon id="Fill-14" fill="#FFFFFF" mask="url(#mask-4)" points="15 5 18 5 18 0 15 0"></polygon>
                <polygon id="Fill-16" fill="#FFFFFF" mask="url(#mask-4)" points="7.60130719 10 4 6.4 6.39962652 4 10 7.6"></polygon>
                <polygon id="Fill-17" fill="#FFFFFF" mask="url(#mask-4)" points="0 18 5 18 5 15 0 15"></polygon>
                <polygon id="Fill-18" fill="#FFFFFF" mask="url(#mask-4)" points="6.39962652 30 4 27.6009339 7.60130719 24 10 26.4009339"></polygon>
                <polygon id="Fill-19" fill="#FFFFFF" mask="url(#mask-4)" points="15 34 18 34 18 29 15 29"></polygon>
                <polygon id="Fill-20" fill="#FFFFFF" mask="url(#mask-4)" points="27.5996264 30 24 26.4009339 26.4003736 24 30 27.6009339"></polygon>
                <polygon id="Fill-21" fill="#FFFFFF" mask="url(#mask-4)" points="29 18 34 18 34 15 29 15"></polygon>
                <polygon id="Fill-22" fill="#FFFFFF" mask="url(#mask-4)" points="26.4003736 10 24 7.6 27.5996264 4 30 6.4"></polygon>
            </g>
        </g>
    </g>
</svg>
